X:316
T:M….[?] Farewell. RH.316
R:Country Dance
S:Rev.R.Harrison’s MS,c1815,Cumbria
N:title illegible in MS
N:I halved the length of the last note in the A music’s
N:2nd time bar, and removed a leading e quaver. I also
N:added the the 1st and 2nd time bars in the B music. PJH
O:England
A:Temple Sowerby,Cumbria
Z:vmp.Simon Wilson. Review PJH, 2008.
M:2/4
L:1/16
Q:1/4=90
K:G
d2dB g2gd|babg ec’af|\
d2dB g2gd|1bgaf gage:|2bgaf g2:|!
|:ga|b3ag3f|efge e2dd|\
babd’ c’2b2|1agab g2:|2agab g4:|

